img/facebook-bw.svg

<?xml version="1.0" encoding="UTF-8" standalone="no"?>
<!-- Created with Inkscape (http://www.inkscape.org/) -->

<svg
   xmlns:dc="http://purl.org/dc/elements/1.1/"
   xmlns:cc="http://creativecommons.org/ns#"
   xmlns:rdf="http://www.w3.org/1999/02/22-rdf-syntax-ns#"
   xmlns:svg="http://www.w3.org/2000/svg"
   xmlns="http://www.w3.org/2000/svg"
   version="1.1"
   width="32"
   height="32">
  <path
      d="M 0,0 0,32 32,32 32,0 0,0 z m 24.03125,3.21875 3.65625,0 0,4.5625 -2.28125,0 c -1.704775,0 -1.8125,0.6551048 -1.8125,1.84375 l 0,2.28125 4.125,0 -0.5,4.5625 -3.625,0 0,13.21875 -5.46875,0 0,-13.21875 -2.75,0 0,-4.5625 2.75,0 0,-2.75 c 0,-3.7179355 1.526895,-5.9375 5.90625,-5.9375 z"
      style="fill:#222222;fill-opacity:1;stroke:none" />
</svg>

<?xml version="1.0" encoding="UTF-8" standalone="no"?>
<!-- Generator: Adobe Illustrator 13.0.0, SVG Export Plug-In . SVG Version: 6.00 Build 14948)  -->

<svg
   xmlns:dc="http://purl.org/dc/elements/1.1/"
   xmlns:cc="http://creativecommons.org/ns#"
   xmlns:rdf="http://www.w3.org/1999/02/22-rdf-syntax-ns#"
   xmlns:svg="http://www.w3.org/2000/svg"
   xmlns="http://www.w3.org/2000/svg"
   xmlns:sodipodi="http://sodipodi.sourceforge.net/DTD/sodipodi-0.dtd"
   xmlns:inkscape="http://www.inkscape.org/namespaces/inkscape"
   version="1.1"
   x="0px"
   y="0px"
   width="32"
   height="32"
   viewBox="0 0 32 32"
   enable-background="new 0 0 128 128"
   xml:space="preserve"
   id="svg3097"
   inkscape:version="0.48.4 r9939"
   sodipodi:docname="facebook_gray.svg"><metadata
     id="metadata3114"><rdf:RDF><cc:Work
         rdf:about=""><dc:format>image/svg+xml</dc:format><dc:type
           rdf:resource="http://purl.org/dc/dcmitype/StillImage" /><dc:title></dc:title></cc:Work></rdf:RDF></metadata><defs
     id="defs3112" /><sodipodi:namedview
     pagecolor="#ffffff"
     bordercolor="#666666"
     borderopacity="1"
     objecttolerance="10"
     gridtolerance="10"
     guidetolerance="10"
     inkscape:pageopacity="0"
     inkscape:pageshadow="2"
     inkscape:window-width="1855"
     inkscape:window-height="1056"
     id="namedview3110"
     showgrid="false"
     fit-margin-top="0"
     fit-margin-left="0"
     fit-margin-right="0"
     fit-margin-bottom="0"
     inkscape:zoom="16.248375"
     inkscape:cx="8.9723434"
     inkscape:cy="10.517483"
     inkscape:window-x="65"
     inkscape:window-y="24"
     inkscape:window-maximized="1"
     inkscape:current-layer="svg3097" /><path
     style="fill:#222222;fill-opacity:1;stroke:none"
     d="M 0 0 L 0 32 L 32 32 L 32 0 L 0 0 z M 24.03125 3.21875 L 27.6875 3.21875 L 27.6875 7.78125 L 25.40625 7.78125 C 23.701475 7.78125 23.59375 8.4363548 23.59375 9.625 L 23.59375 11.90625 L 27.71875 11.90625 L 27.21875 16.46875 L 23.59375 16.46875 L 23.59375 29.6875 L 18.125 29.6875 L 18.125 16.46875 L 15.375 16.46875 L 15.375 11.90625 L 18.125 11.90625 L 18.125 9.15625 C 18.125 5.4383145 19.651895 3.21875 24.03125 3.21875 z "
     id="rect3116" /></svg>
